Desktop/project_createx/public/images/Services/home.svg

<svg width="16" height="17" viewBox="0 0 16 17" fill="none" xmlns="http://www.w3.org/2000/svg">
<path fill-rule="evenodd" clip-rule="evenodd" d="M8.52347 3.28077C8.18117 3.18809 7.82039 3.18809 7.47809 3.28077C7.12173 3.37726 6.77613 3.63005 5.7906 4.39657L4.05726 5.74472C3.42297 6.23806 3.21001 6.41103 3.05947 6.61456C2.91481 6.81015 2.80705 7.03049 2.74148 7.26476C2.67324 7.50853 2.66745 7.78283 2.66745 8.58639V12.9996C2.66745 13.5133 2.67468 13.6224 2.69615 13.6932C2.76079 13.9062 2.92752 14.073 3.14059 14.1376C3.21137 14.1591 3.32042 14.1663 3.83411 14.1663H4.25078C4.33608 14.1663 4.3546 14.1661 4.36683 14.1655C4.7093 14.1487 4.98315 13.8748 4.99998 13.5323C5.00058 13.5201 5.00078 13.5016 5.00078 13.4163V11.4996C5.00078 9.84278 6.34393 8.49963 8.00078 8.49963C9.65763 8.49963 11.0008 9.84278 11.0008 11.4996V13.4163C11.0008 13.5016 11.001 13.5201 11.0016 13.5323C11.0184 13.8748 11.2923 14.1487 11.6347 14.1655C11.647 14.1661 11.6655 14.1663 11.7508 14.1663H12.1674C12.6811 14.1663 12.7902 14.1591 12.861 14.1376C13.074 14.073 13.2408 13.9062 13.3054 13.6932C13.3269 13.6224 13.3341 13.5133 13.3341 12.9996V8.58639C13.3341 7.78283 13.3283 7.50853 13.2601 7.26476C13.1945 7.03049 13.0867 6.81015 12.9421 6.61456C12.7916 6.41103 12.5786 6.23806 11.9443 5.74472L10.211 4.39657C9.22543 3.63005 8.87984 3.37726 8.52347 3.28077ZM7.12962 1.99378C7.70013 1.83931 8.30144 1.83931 8.87194 1.99378C9.52079 2.16946 10.0901 2.61272 10.9161 3.25581C10.9534 3.28484 10.9912 3.31427 11.0296 3.3441L12.7629 4.69225C12.7868 4.71089 12.8105 4.72926 12.8338 4.74739C13.37 5.16417 13.741 5.45248 14.0141 5.8217C14.2552 6.14768 14.4348 6.51491 14.5441 6.90536C14.6679 7.34759 14.6677 7.81741 14.6675 8.49656C14.6675 8.5261 14.6674 8.55604 14.6674 8.58639V12.9996C14.6674 13.0279 14.6675 13.0558 14.6675 13.0835C14.668 13.4644 14.6684 13.7933 14.5813 14.0802C14.3874 14.7194 13.8872 15.2196 13.248 15.4135C12.9611 15.5005 12.6322 15.5002 12.2513 15.4997C12.2236 15.4997 12.1957 15.4996 12.1674 15.4996L11.7368 15.4996C11.6734 15.4996 11.6189 15.4997 11.5693 15.4972C10.5419 15.4468 9.72033 14.6252 9.66986 13.5978C9.66742 13.5482 9.66743 13.4937 9.66745 13.4303L9.66745 11.4996C9.66745 10.5792 8.92126 9.83297 8.00078 9.83297C7.08031 9.83297 6.33411 10.5792 6.33411 11.4996L6.33412 13.4303C6.33413 13.4937 6.33414 13.5482 6.33171 13.5978C6.28123 14.6252 5.45966 15.4468 4.43225 15.4972C4.38269 15.4997 4.32818 15.4996 4.26475 15.4996L3.83411 15.4996C3.80588 15.4996 3.77792 15.4997 3.75023 15.4997C3.36938 15.5002 3.04044 15.5005 2.75355 15.4135C2.11434 15.2196 1.61413 14.7194 1.42023 14.0802C1.3332 13.7933 1.3336 13.4644 1.33405 13.0835C1.33408 13.0558 1.33411 13.0279 1.33411 12.9996V8.58639C1.33411 8.55604 1.3341 8.5261 1.33409 8.49655C1.33387 7.81741 1.33371 7.34759 1.45749 6.90536C1.56678 6.51491 1.74639 6.14768 1.98749 5.8217C2.26057 5.45248 2.63153 5.16416 3.16775 4.74739C3.19108 4.72926 3.21472 4.71089 3.23867 4.69225L4.97201 3.3441C5.01037 3.31427 5.04817 3.28483 5.08545 3.25581C5.91144 2.61272 6.48077 2.16946 7.12962 1.99378Z" fill="white"/>
</svg>

<svg xmlns="http://www.w3.org/2000/svg" width="16" height="17" fill="none"><path fill="#fff" fill-rule="evenodd" d="M8.523 3.28a2 2 0 0 0-1.045 0c-.356.097-.702.35-1.687 1.117L4.057 5.745c-.634.493-.847.666-.998.87a2 2 0 0 0-.318.65c-.068.244-.074.518-.074 1.321V13c0 .513.008.622.03.693.064.213.23.38.444.445.07.021.18.028.693.028h.533A.667.667 0 0 0 5 13.532V11.5a3 3 0 0 1 6 0v1.916c0 .086.001.104.002.116.016.343.29.617.633.633l.116.001h.416c.514 0 .623-.007.694-.028a.67.67 0 0 0 .444-.445c.022-.07.03-.18.03-.693V8.586c0-.803-.007-1.077-.075-1.321a2 2 0 0 0-.318-.65c-.15-.204-.363-.377-.998-.87l-1.733-1.348C9.225 3.63 8.88 3.377 8.523 3.28M7.13 1.995a3.33 3.33 0 0 1 1.742 0c.649.175 1.218.619 2.044 1.262l.114.088 1.733 1.348.07.055c.537.417.908.705 1.181 1.075.241.326.42.693.53 1.083.124.443.124.912.123 1.592v4.587c.001.38.001.71-.086.996a2 2 0 0 1-1.333 1.334c-.287.087-.616.086-.997.086h-.514q-.095 0-.168-.003a2 2 0 0 1-1.902-2.067V11.5a1.667 1.667 0 0 0-3.333 0v1.93q0 .095-.002.168a2 2 0 0 1-1.9 1.9q-.074.002-.167.002H3.75c-.38 0-.71 0-.996-.086A2 2 0 0 1 1.42 14.08c-.087-.287-.086-.616-.086-.996V8.496c0-.679 0-1.148.123-1.59.11-.391.29-.758.53-1.084.274-.37.645-.658 1.18-1.075l.072-.055 1.733-1.348.113-.088c.826-.643 1.396-1.087 2.045-1.262" clip-rule="evenodd"/></svg>
